content/fr/images/chapitre5/check-all.svg

<svg height="1000" width="968.8" xmlns="http://www.w3.org/2000/svg"><path d="m732.4 291l-263.6 265.6-58.6-58.6 263.6-265.6z m177.8-58.6l58.6 58.6-500 500-232.5-232.4 58.6-58.6 173.9 173.8z m-910.2 326.2l58.6-58.6 232.4 232.4-58.6 58.6z" /></svg>

<?xml version="1.0" encoding="utf-8"?>
<!-- Generator: Adobe Illustrator 23.0.6, SVG Export Plug-In . SVG Version: 6.00 Build 0)  -->
<svg version="1.1" id="Calque_1" xmlns="http://www.w3.org/2000/svg" xmlns:xlink="http://www.w3.org/1999/xlink" x="0px" y="0px"
	 viewBox="0 0 968.8 1000" style="enable-background:new 0 0 968.8 1000;" xml:space="preserve">
<style type="text/css">
	.st0{fill:#688ED8;}
</style>
<path class="st0" d="M732.4,291L468.8,556.6L410.2,498l263.6-265.6L732.4,291z M910.2,232.4l58.6,58.6l-500,500L236.3,558.6
	l58.6-58.6l173.9,173.8L910.2,232.4z M0,558.6L58.6,500L291,732.4L232.4,791L0,558.6z"/>
</svg>
